exported-svg/shuffle.svg

<svg height="24" viewBox="0 0 24 24" width="24" xmlns="http://www.w3.org/2000/svg"><path d="m19.2928932 4h-3.7928932c-.2761424 0-.5-.22385763-.5-.5s.2238576-.5.5-.5h5c.2761424 0 .5.22385763.5.5v5c0 .27614237-.2238576.5-.5.5s-.5-.22385763-.5-.5v-3.79289322l-16.14644661 16.14644662c-.19526215.1952621-.51184463.1952621-.70710678 0-.19526215-.1952622-.19526215-.5118446 0-.7071068zm.7071068 16.2928932v-3.7928932c0-.2761424.2238576-.5.5-.5s.5.2238576.5.5v5c0 .2761424-.2238576.5-.5.5h-5c-.2761424 0-.5-.2238576-.5-.5s.2238576-.5.5-.5h3.7928932l-5.1464466-5.1464466c-.1952621-.1952622-.1952621-.5118446 0-.7071068.1952622-.1952621.5118446-.1952621.7071068 0zm-16.85355339-15.43933981c-.19526215-.19526215-.19526215-.51184463 0-.70710678s.51184463-.19526215.70710678 0l5 5c.19526215.19526215.19526215.51184463 0 .70710678-.19526215.19526211-.51184463.19526211-.70710678 0z"/></svg>

<?xml version="1.0" encoding="UTF-8"?>
<svg width="24px" height="24px" viewBox="0 0 24 24" version="1.1" xmlns="http://www.w3.org/2000/svg" xmlns:xlink="http://www.w3.org/1999/xlink">
    <!-- Generator: Sketch 55.2 (78181) - https://sketchapp.com -->
    <title>shuffle</title>
    <desc>Created with Sketch.</desc>
    <g id="shuffle" stroke="none" stroke-width="1" fill="none" fill-rule="evenodd">
        <path d="M19.2928932,4 L15.5,4 C15.2238576,4 15,3.77614237 15,3.5 C15,3.22385763 15.2238576,3 15.5,3 L20.5,3 C20.7761424,3 21,3.22385763 21,3.5 L21,8.5 C21,8.77614237 20.7761424,9 20.5,9 C20.2238576,9 20,8.77614237 20,8.5 L20,4.70710678 L3.85355339,20.8535534 C3.65829124,21.0488155 3.34170876,21.0488155 3.14644661,20.8535534 C2.95118446,20.6582912 2.95118446,20.3417088 3.14644661,20.1464466 L19.2928932,4 Z" id="arrow-up" fill="#000000" fill-rule="nonzero"></path>
        <path d="M20,20.2928932 L20,16.5 C20,16.2238576 20.2238576,16 20.5,16 C20.7761424,16 21,16.2238576 21,16.5 L21,21.5 C21,21.7761424 20.7761424,22 20.5,22 L15.5,22 C15.2238576,22 15,21.7761424 15,21.5 C15,21.2238576 15.2238576,21 15.5,21 L19.2928932,21 L14.1464466,15.8535534 C13.9511845,15.6582912 13.9511845,15.3417088 14.1464466,15.1464466 C14.3417088,14.9511845 14.6582912,14.9511845 14.8535534,15.1464466 L20,20.2928932 Z" id="arrow-bottom" fill="#000000" fill-rule="nonzero"></path>
        <path d="M3.14644661,4.85355339 L8.14644661,9.85355339 C8.34170876,10.0488155 8.65829124,10.0488155 8.85355339,9.85355339 C9.04881554,9.65829124 9.04881554,9.34170876 8.85355339,9.14644661 L3.85355339,4.14644661 C3.65829124,3.95118446 3.34170876,3.95118446 3.14644661,4.14644661 C2.95118446,4.34170876 2.95118446,4.65829124 3.14644661,4.85355339 Z" id="Shape" fill="#000000" fill-rule="nonzero"></path>
    </g>
</svg>
